assets/bold/lock-laminated-bold.svg

<svg id="Flat" xmlns="http://www.w3.org/2000/svg" viewBox="0 0 256 256">
  <path d="M207.99414,76h-32V52a48,48,0,1,0-96,0V76h-32a20.02292,20.02292,0,0,0-20,20V208a20.02292,20.02292,0,0,0,20,20h160a20.02292,20.02292,0,0,0,20-20V96A20.02292,20.02292,0,0,0,207.99414,76Zm-156,68h152v16h-152Zm52-92a24,24,0,1,1,48,0V76h-48Zm100,48v20h-152V100Zm-152,104V184h152v20Z"/>
</svg>

<svg xmlns="http://www.w3.org/2000/svg" viewBox="0 0 256 256"><path d="M208,76H176V52a48,48,0,0,0-96,0V76H48A20.1,20.1,0,0,0,28,96V208a20.1,20.1,0,0,0,20,20H208a20.1,20.1,0,0,0,20-20V96A20.1,20.1,0,0,0,208,76ZM52,144H204v16H52Zm52-92a24,24,0,0,1,48,0V76H104Zm100,48v20H52V100ZM52,204V184H204v20Z"/></svg>
